cmd/conneroh/_static/dist/svg/fish-off.svg

<svg height="18" viewBox="0 0 18 18" width="18" xmlns="http://www.w3.org/2000/svg"><g fill="none" stroke="#fff" stroke-linecap="round" stroke-linejoin="round" stroke-width="2" transform="scale(.75)"><path d="m18 12.46875v.03125m0-.5v.46875m-.473958 5.057292c-.802084.317708-1.661459.479166-2.526042.473958-3.5625 0-7.5625-2.53125-8.5-6 .348958-1.28125 1.114583-2.432292 2.119792-3.380208m3.442708-2.088542c.942708-.34375 1.9375-.520833 2.9375-.53125 3.5625 0 6.0625 2.541667 7 6-.307292 1.140625-.786458 2.177083-1.411458 3.057292"/><path d="m7 10.671875c0-2.671875-1.421875-4.703125-4.270833-5.171875-1 1.5-1 5 .229166 6.5-1.239583 1.5-1.239583 5-.229166 6.5 2.848958-.46875 4.270833-2.5 4.270833-5.171875m7.479167-4.369792c.34375-1.041666.854166-2.015625 1.520833-2.890625m0 11.864584c-.817708-1.078125-1.40625-2.307292-1.729167-3.619792"/><path d="m16.010417 17.932292-.229167 1.395833c-.161458.96875-1 1.677083-1.979167 1.671875h-4.302083c.96875-1.098958 1.5-2.515625 1.489583-3.979167m-2.458333-14.020833h5.270833c.979167-.005208 1.817709.703125 1.979167 1.671875l.229167 1.395833m-14.010417-4.067708 20 20"/></g></svg>

<svg xmlns="http://www.w3.org/2000/svg" width="24" height="24" fill="none" stroke="white" stroke-linecap="round" stroke-linejoin="round" stroke-width="2">
    <path d="M18 12.47v.03m0-.5v.47m-.475 5.056A6.7 6.7 0 0 1 15 18c-3.56 0-7.56-2.53-8.5-6 .348-1.28 1.114-2.433 2.121-3.38m3.444-2.088A8.8 8.8 0 0 1 15 6c3.56 0 6.06 2.54 7 6-.309 1.14-.786 2.177-1.413 3.058"/>
    <path d="M7 10.67C7 8 5.58 5.97 2.73 5.5c-1 1.5-1 5 .23 6.5-1.24 1.5-1.24 5-.23 6.5C5.58 18.03 7 16 7 13.33m7.48-4.372A9.8 9.8 0 0 1 16 6.07m0 11.86a9.8 9.8 0 0 1-1.728-3.618"/>
    <path d="m16.01 17.93-.23 1.4A2 2 0 0 1 13.8 21H9.5a5.96 5.96 0 0 0 1.49-3.98M8.53 3h5.27a2 2 0 0 1 1.98 1.67l.23 1.4M2 2l20 20"/>
</svg>
